static/assets/template/assets/img/icons/essential/detailed/Strength_2.svg

<svg height="147" viewBox="0 0 134 147" width="134" xmlns="http://www.w3.org/2000/svg"><g fill="none" fill-rule="evenodd" transform="translate(2 2)"><path d="m22.4 141c-.4 1.3-1.7 2.1-3 1.7-5.8-1.6-11.5-3.2-17.2-4.7-1.9-.5-2.4-3.2-.7-4.3.3-.2.7-.4 1.2-.6 8.1-3.4 10.5-12.7 5.3-19.8-1.9-2.7-1.1-5.9 1.9-7.2 8.4-3.6 10.8-12.6 5.4-20.1-1.8-2.4-.7-5.8 2.1-6.9 8-3.2 10.7-13 5.6-20-.2-.3-.4-.6-.5-1-.6-1.8 1.1-3.6 3-3.1 5.9 1.6 11.3 3.1 16.8 4.6 1.3.4 2.1 1.7 1.7 3-7.2 26.2-14.4 52.2-21.6 78.4z" fill-rule="nonzero"/><path d="m108.2 141c.4 1.3 1.7 2.1 3 1.7 5.8-1.6 11.5-3.2 17.2-4.7 1.9-.5 2.4-3.2.7-4.3-.3-.2-.7-.4-1.2-.6-8.1-3.4-10.5-12.7-5.3-19.8 1.9-2.7 1.1-5.9-1.9-7.2-8.4-3.6-10.8-12.6-5.4-20.1 1.8-2.4.7-5.8-2.1-6.9-8-3.2-10.7-13-5.6-20 .2-.3.4-.6.5-1 .6-1.8-1.1-3.6-3-3.1-5.9 1.6-11.3 3.1-16.8 4.6-1.3.4-2.1 1.7-1.7 3 7.2 26.2 14.4 52.2 21.6 78.4z" fill-rule="nonzero"/><path d="m22.4 141c-.4 1.3-1.7 2.1-3 1.7-5.8-1.6-11.5-3.2-17.2-4.7-1.9-.5-2.4-3.2-.7-4.3.3-.2.7-.4 1.2-.6 8.1-3.4 10.5-12.7 5.3-19.8-1.9-2.7-1.1-5.9 1.9-7.2 8.4-3.6 10.8-12.6 5.4-20.1-1.8-2.4-.7-5.8 2.1-6.9 8-3.2 10.7-13 5.6-20-.2-.3-.4-.6-.5-1-.6-1.8 1.1-3.6 3-3.1 5.9 1.6 11.3 3.1 16.8 4.6 1.3.4 2.1 1.7 1.7 3-7.2 26.2-14.4 52.2-21.6 78.4z" fill-rule="nonzero"/><path d="m108.2 141c.4 1.3 1.7 2.1 3 1.7 5.8-1.6 11.5-3.2 17.2-4.7 1.9-.5 2.4-3.2.7-4.3-.3-.2-.7-.4-1.2-.6-8.1-3.4-10.5-12.7-5.3-19.8 1.9-2.7 1.1-5.9-1.9-7.2-8.4-3.6-10.8-12.6-5.4-20.1 1.8-2.4.7-5.8-2.1-6.9-8-3.2-10.7-13-5.6-20 .2-.3.4-.6.5-1 .6-1.8-1.1-3.6-3-3.1-5.9 1.6-11.3 3.1-16.8 4.6-1.3.4-2.1 1.7-1.7 3 7.2 26.2 14.4 52.2 21.6 78.4z" fill-rule="nonzero"/><g stroke-linecap="round" stroke-linejoin="round" stroke-width="3"><path d="m22.4 141c-.4 1.3-1.7 2.1-3 1.7-5.8-1.6-11.5-3.2-17.2-4.7-1.9-.5-2.4-3.2-.7-4.3.3-.2.7-.4 1.2-.6 8.1-3.4 10.5-12.7 5.3-19.8-1.9-2.7-1.1-5.9 1.9-7.2 8.4-3.6 10.8-12.6 5.4-20.1-1.8-2.4-.7-5.8 2.1-6.9 8-3.2 10.7-13 5.6-20-.2-.3-.4-.6-.5-1-.6-1.8 1.1-3.6 3-3.1 5.9 1.6 11.3 3.1 16.8 4.6 1.3.4 2.1 1.7 1.7 3-7.2 26.2-14.4 52.2-21.6 78.4z"/><path d="m108.2 141c.4 1.3 1.7 2.1 3 1.7 5.8-1.6 11.5-3.2 17.2-4.7 1.9-.5 2.4-3.2.7-4.3-.3-.2-.7-.4-1.2-.6-8.1-3.4-10.5-12.7-5.3-19.8 1.9-2.7 1.1-5.9-1.9-7.2-8.4-3.6-10.8-12.6-5.4-20.1 1.8-2.4.7-5.8-2.1-6.9-8-3.2-10.7-13-5.6-20 .2-.3.4-.6.5-1 .6-1.8-1.1-3.6-3-3.1-5.9 1.6-11.3 3.1-16.8 4.6-1.3.4-2.1 1.7-1.7 3 7.2 26.2 14.4 52.2 21.6 78.4z"/><path d="m44.4 39.6c-2.9-4.1-4.6-9.1-4.6-14.5 0-13.9 11.3-25.1 25.1-25.1 9.6 0 18.2 5.3 22.5 13.9.4.8.7 1.6 1.1 2.4.1.4.3.8.4 1.1m-3.4 22.2c-4.6 6.4-12.1 10.7-20.5 10.7-5.8 0-11.2-2-15.5-5.4m16.9-35c-.5 0-.9-.1-1.4-.1-8.4 0-15.3 6.9-15.3 15.3s6.9 15.3 15.3 15.3 15.3-6.9 15.3-15.3c0-1.9-.3-3.7-1-5.4-.2-.5-.4-1-.6-1.5m-6.4-6.5c-.2-.1-.4-.2-.6-.3"/><path d="m88.5 16.3 12 38.4"/><path d="m91.1 57.6-11.5-37.1"/><path d="m44.4 39.6-5.6 18c-.1.3-.2.6-.4.9"/><path d="m29.5 54.7 11.5-37"/></g></g></svg>

<?xml version="1.0" encoding="UTF-8"?>
<svg width="134px" height="147px" viewBox="0 0 134 147" version="1.1" xmlns="http://www.w3.org/2000/svg" xmlns:xlink="http://www.w3.org/1999/xlink">
    <!-- Generator: Sketch 51.2 (57519) - http://www.bohemiancoding.com/sketch -->
    <title>Strength_2</title>
    <desc>Created with Sketch.</desc>
    <defs></defs>
    <g id="Page-1" stroke="none" stroke-width="1" fill="none" fill-rule="evenodd">
        <g id="Strength_2" transform="translate(2.000000, 2.000000)">
            <path d="M22.4,141 C22,142.3 20.7,143.1 19.4,142.7 C13.6,141.1 7.9,139.5 2.2,138 C2.2,138 2.2,138 2.2,138 C0.3,137.5 -0.2,134.8 1.5,133.7 C1.8,133.5 2.2,133.3 2.7,133.1 C10.8,129.7 13.2,120.4 8,113.3 C6.1,110.6 6.9,107.4 9.9,106.1 C18.3,102.5 20.7,93.5 15.3,86 C13.5,83.6 14.6,80.2 17.4,79.1 C25.4,75.9 28.1,66.1 23,59.1 C22.8,58.8 22.6,58.5 22.5,58.1 C21.9,56.3 23.6,54.5 25.5,55 C31.4,56.6 36.8,58.1 42.3,59.6 C43.6,60 44.4,61.3 44,62.6 C36.8,88.8 29.6,114.8 22.4,141 Z" id="Shape" class="fill-neutral" fill-rule="nonzero"></path>
            <path d="M108.2,141 C108.6,142.3 109.9,143.1 111.2,142.7 C117,141.1 122.7,139.5 128.4,138 C128.4,138 128.4,138 128.4,138 C130.3,137.5 130.8,134.8 129.1,133.7 C128.8,133.5 128.4,133.3 127.9,133.1 C119.8,129.7 117.4,120.4 122.6,113.3 C124.5,110.6 123.7,107.4 120.7,106.1 C112.3,102.5 109.9,93.5 115.3,86 C117.1,83.6 116,80.2 113.2,79.1 C105.2,75.9 102.5,66.1 107.6,59.1 C107.8,58.8 108,58.5 108.1,58.1 C108.7,56.3 107,54.5 105.1,55 C99.2,56.6 93.8,58.1 88.3,59.6 C87,60 86.2,61.3 86.6,62.6 C93.8,88.8 101,114.8 108.2,141 Z" id="Shape" class="fill-neutral" fill-rule="nonzero"></path>
            <path d="M22.4,141 C22,142.3 20.7,143.1 19.4,142.7 C13.6,141.1 7.9,139.5 2.2,138 C2.2,138 2.2,138 2.2,138 C0.3,137.5 -0.2,134.8 1.5,133.7 C1.8,133.5 2.2,133.3 2.7,133.1 C10.8,129.7 13.2,120.4 8,113.3 C6.1,110.6 6.9,107.4 9.9,106.1 C18.3,102.5 20.7,93.5 15.3,86 C13.5,83.6 14.6,80.2 17.4,79.1 C25.4,75.9 28.1,66.1 23,59.1 C22.8,58.8 22.6,58.5 22.5,58.1 C21.9,56.3 23.6,54.5 25.5,55 C31.4,56.6 36.8,58.1 42.3,59.6 C43.6,60 44.4,61.3 44,62.6 C36.8,88.8 29.6,114.8 22.4,141 Z" id="Shape" class="fill-primary-400" fill-rule="nonzero"></path>
            <path d="M108.2,141 C108.6,142.3 109.9,143.1 111.2,142.7 C117,141.1 122.7,139.5 128.4,138 C128.4,138 128.4,138 128.4,138 C130.3,137.5 130.8,134.8 129.1,133.7 C128.8,133.5 128.4,133.3 127.9,133.1 C119.8,129.7 117.4,120.4 122.6,113.3 C124.5,110.6 123.7,107.4 120.7,106.1 C112.3,102.5 109.9,93.5 115.3,86 C117.1,83.6 116,80.2 113.2,79.1 C105.2,75.9 102.5,66.1 107.6,59.1 C107.8,58.8 108,58.5 108.1,58.1 C108.7,56.3 107,54.5 105.1,55 C99.2,56.6 93.8,58.1 88.3,59.6 C87,60 86.2,61.3 86.6,62.6 C93.8,88.8 101,114.8 108.2,141 Z" id="Shape" class="fill-primary-400" fill-rule="nonzero"></path>
            <path d="M22.4,141 C22,142.3 20.7,143.1 19.4,142.7 C13.6,141.1 7.9,139.5 2.2,138 C2.2,138 2.2,138 2.2,138 C0.3,137.5 -0.2,134.8 1.5,133.7 C1.8,133.5 2.2,133.3 2.7,133.1 C10.8,129.7 13.2,120.4 8,113.3 C6.1,110.6 6.9,107.4 9.9,106.1 C18.3,102.5 20.7,93.5 15.3,86 C13.5,83.6 14.6,80.2 17.4,79.1 C25.4,75.9 28.1,66.1 23,59.1 C22.8,58.8 22.6,58.5 22.5,58.1 C21.9,56.3 23.6,54.5 25.5,55 C31.4,56.6 36.8,58.1 42.3,59.6 C43.6,60 44.4,61.3 44,62.6 C36.8,88.8 29.6,114.8 22.4,141 Z" id="Shape" class="stroke-primary" stroke-width="3" stroke-linecap="round" stroke-linejoin="round"></path>
            <path d="M108.2,141 C108.6,142.3 109.9,143.1 111.2,142.7 C117,141.1 122.7,139.5 128.4,138 C128.4,138 128.4,138 128.4,138 C130.3,137.5 130.8,134.8 129.1,133.7 C128.8,133.5 128.4,133.3 127.9,133.1 C119.8,129.7 117.4,120.4 122.6,113.3 C124.5,110.6 123.7,107.4 120.7,106.1 C112.3,102.5 109.9,93.5 115.3,86 C117.1,83.6 116,80.2 113.2,79.1 C105.2,75.9 102.5,66.1 107.6,59.1 C107.8,58.8 108,58.5 108.1,58.1 C108.7,56.3 107,54.5 105.1,55 C99.2,56.6 93.8,58.1 88.3,59.6 C87,60 86.2,61.3 86.6,62.6 C93.8,88.8 101,114.8 108.2,141 Z" id="Shape" class="stroke-primary" stroke-width="3" stroke-linecap="round" stroke-linejoin="round"></path>
            <path d="M44.4,39.6 C41.5,35.5 39.8,30.5 39.8,25.1 C39.8,11.2 51.1,0 64.9,0 C74.5,0 83.1,5.3 87.4,13.9 C87.8,14.7 88.1,15.5 88.5,16.3 C88.6,16.7 88.8,17.1 88.9,17.4 M85.5,39.6 C80.9,46 73.4,50.3 65,50.3 C59.2,50.3 53.8,48.3 49.5,44.9 M66.4,9.9 C65.9,9.9 65.5,9.8 65,9.8 C56.6,9.8 49.7,16.7 49.7,25.1 C49.7,33.5 56.6,40.4 65,40.4 C73.4,40.4 80.3,33.5 80.3,25.1 C80.3,23.2 80,21.4 79.3,19.7 C79.1,19.2 78.9,18.7 78.7,18.2 M72.3,11.7 C72.1,11.6 71.9,11.5 71.7,11.4" id="Shape" class="stroke-primary" stroke-width="3" stroke-linecap="round" stroke-linejoin="round"></path>
            <path d="M88.5,16.3 L100.5,54.7" id="Shape" class="stroke-primary" stroke-width="3" stroke-linecap="round" stroke-linejoin="round"></path>
            <path d="M91.1,57.6 L79.6,20.5" id="Shape" class="stroke-primary" stroke-width="3" stroke-linecap="round" stroke-linejoin="round"></path>
            <path d="M44.4,39.6 L38.8,57.6 C38.7,57.9 38.6,58.2 38.4,58.5" id="Shape" class="stroke-primary" stroke-width="3" stroke-linecap="round" stroke-linejoin="round"></path>
            <path d="M29.5,54.7 L41,17.7" id="Shape" class="stroke-primary" stroke-width="3" stroke-linecap="round" stroke-linejoin="round"></path>
        </g>
    </g>
</svg>
